X:5297
T:Fishers Hornpipe. TLY.014
T:Fishar's Hornpipe. TLY.014
T:Egg Hornpipe. TLY.014
M:2/2
L:1/8
Q:180
S:Wm.Tildesley,Swinton,Lancs.1860s.
R:Hornpipe
O:England.
A:Lancashire.
N:Arnold Fishar was a ballet master at Covent Garden in about the 1760s
N:and is known to have composed hornpipes for the stage.
H:1860.
Z:vmp.Taz Tarry.
K:D
AB/2c/2|dAFA GBAG|FAFA GBAG|FDFD GEGE|FAFD E2E2|!
dAFA GBAG|FAFA GBAG|FdBg fdec|d2d2d2:|!
|:cd|ecAc ecge|fdBd fdaf|ecAc ecge|!
edcB AABd|BGEG BGdB|AFDF AFdB|BGdB AGFE|D2D2D2:|]
